svg/u1f9d1_1f3fc_200d_1f9b0.svg

<svg viewBox="0 0 128 128" xmlns="http://www.w3.org/2000/svg">
  <g id="hairGroup">
    <path id="hair_x5F_red_1_" d="M98.9,79.85c-1.25-2.27,0.34-4.58,3.06-7.44c4.31-4.54,9-15.07,4.64-25.76 c0.03-0.06-0.86-1.86-0.83-1.92l-1.79-0.09c-0.57-0.08-20.26-0.12-39.97-0.12c-19.71,0-39.39,0.04-39.97,0.12 c0,0-2.65,1.95-2.63,2.01c-4.35,10.69,0.33,21.22,4.64,25.76c2.71,2.86,4.3,5.17,3.06,7.44c-1.21,2.21-4.81,2.53-4.81,2.53 s0.83,2.26,2.83,3.48c1.85,1.13,4.13,1.39,5.7,1.43c0,0,6.15,8.51,22.23,8.51l8.95,0l8.95,0c16.08,0,22.23-8.51,22.23-8.51 c1.57-0.04,3.85-0.3,5.7-1.43c2-1.22,2.83-3.48,2.83-3.48S100.11,82.06,98.9,79.85z" fill="#E63D00"/>
    <g id="hairHighlights_x5F_red_1_">
      <radialGradient id="SVGID_1_" cx="98.7521" cy="83.6008" gradientTransform="matrix(1 0 0 -0.4912 -19.2833 124.6652)" gradientUnits="userSpaceOnUse" r="23.419">
        <stop offset="0.6985" stop-color="#F98B25" stop-opacity="0"/>
        <stop offset="1" stop-color="#F98B25"/>
      </radialGradient>
      <path d="M63.99,95.79v-9.44l28.57-2.26l2.6,3.2c0,0-6.15,8.51-22.23,8.51L63.99,95.79z" fill="url(#SVGID_1_)"/>
      <radialGradient id="SVGID_2_" cx="76.5728" cy="78.6684" gradientTransform="matrix(-0.9057 0.4238 0.3144 0.6719 146.2699 -6.6435)" gradientUnits="userSpaceOnUse" r="6.9209">
        <stop offset="0" stop-color="#F98B25"/>
        <stop offset="0.8724" stop-color="#F98B25" stop-opacity="0"/>
      </radialGradient>
      <path d="M95.1,83.16c-4.28-6.5,5.21-8.93,5.21-8.93s0.01,0.01,0.01,0.01 c-1.65,2.05-2.4,3.84-1.43,5.61c1.21,2.21,4.81,2.53,4.81,2.53S98.79,86.74,95.1,83.16z" fill="url(#SVGID_2_)"/>
      <radialGradient id="SVGID_3_" cx="90.9303" cy="59.2786" gradientTransform="matrix(-0.0746 -0.9972 -0.8311 0.0622 143.3434 146.2686)" gradientUnits="userSpaceOnUse" r="30.3992">
        <stop offset="0.6985" stop-color="#F98B25" stop-opacity="0"/>
        <stop offset="1" stop-color="#F98B25"/>
      </radialGradient>
      <path d="M106.62,46.65c4.25,10.35-0.22,21.01-4.41,25.51c-0.58,0.62-3.01,3.01-3.57,4.92 c0,0-9.54-13.31-12.39-21.13c-0.58-1.58-1.1-3.2-1.17-4.88c-0.05-1.26,0.14-2.76,0.87-3.82c0.89-1.31,20.16-1.7,20.16-1.7 C106.11,45.55,106.62,46.65,106.62,46.65z" fill="url(#SVGID_3_)"/>
      <radialGradient id="SVGID_4_" cx="41.5337" cy="62.6445" gradientTransform="matrix(0.0746 -0.9972 0.8311 0.0622 -13.6304 100.1664)" gradientUnits="userSpaceOnUse" r="30.3992">
        <stop offset="0.6985" stop-color="#F98B25" stop-opacity="0"/>
        <stop offset="1" stop-color="#F98B25"/>
      </radialGradient>
      <path d="M21.4,46.65C17.16,57,21.63,67.66,25.81,72.15c0.58,0.62,3.01,3.01,3.57,4.92 c0,0,9.54-13.31,12.39-21.13c0.58-1.58,1.1-3.2,1.17-4.88c0.05-1.26-0.14-2.76-0.87-3.82c-0.89-1.31-1.93-0.96-3.44-0.96 c-2.88,0-15.49-0.74-16.47-0.74C22.17,45.55,21.4,46.65,21.4,46.65z" fill="url(#SVGID_4_)"/>
      <radialGradient id="SVGID_5_" cx="48.8854" cy="83.5383" gradientTransform="matrix(-1 0 0 -0.4912 97.7708 124.572)" gradientUnits="userSpaceOnUse" r="23.419">
        <stop offset="0.6985" stop-color="#F98B25" stop-opacity="0"/>
        <stop offset="1" stop-color="#F98B25"/>
      </radialGradient>
      <path d="M64.03,95.79v-9.44l-28.57-2.26l-2.6,3.2c0,0,6.15,8.51,22.23,8.51L64.03,95.79z" fill="url(#SVGID_5_)"/>
      <radialGradient id="SVGID_6_" cx="26.3739" cy="78.6684" gradientTransform="matrix(0.9057 0.4238 -0.3144 0.6719 27.2196 14.6316)" gradientUnits="userSpaceOnUse" r="6.9209">
        <stop offset="0" stop-color="#F98B25"/>
        <stop offset="0.9438" stop-color="#F98B25" stop-opacity="0"/>
      </radialGradient>
      <path d="M32.93,83.16c4.28-6.5-5.21-8.93-5.21-8.93s-0.01,0.01-0.01,0.01 c1.65,2.05,2.4,3.84,1.43,5.61c-1.21,2.21-4.81,2.53-4.81,2.53S29.23,86.74,32.93,83.16z" fill="url(#SVGID_6_)"/>
    </g>
  </g>
  <g id="shirt_1_">
    <linearGradient id="SVGID_7_" gradientUnits="userSpaceOnUse" x1="64" x2="64" y1="94.5648" y2="122.1097">
      <stop offset="0" stop-color="#F78C1F"/>
      <stop offset="0.4945" stop-color="#F37F21"/>
      <stop offset="1" stop-color="#ED6D23"/>
    </linearGradient>
    <path d="M64.13,94.68c-0.04,0-0.09,0-0.13,0c-25.49,0.03-51.13,7.5-51.13,25.28V124h1.5h1.5h96.27 h1.5h1.5v-4.04C115.13,103.2,89.73,94.68,64.13,94.68z" fill="url(#SVGID_7_)"/>
  </g>
  <g id="neck_1_">
    <path d="M54.92,90.08v9.98c0,4.51,3.7,8.17,8.26,8.17h1.65c4.56,0,8.26-3.66,8.26-8.17v-9.98H54.92z" fill="#C48E6A"/>
  </g>
  <g id="ears_1_">
    <path d="M91.33,50.43H36.67c-5.89,0-10.71,5.14-10.71,11.41s4.82,11.41,10.71,11.41h54.65 c5.89,0,10.71-5.14,10.71-11.41S97.22,50.43,91.33,50.43z" fill="#C48E6A"/>
  </g>
  <g id="head">
    <path d="M64,11.07L64,11.07L64,11.07c-17.4,0-33.52,18.61-33.52,45.39c0,26.64,16.61,39.81,33.52,39.81 S97.52,83.1,97.52,56.46C97.52,29.68,81.4,11.07,64,11.07z" fill="#E0BB95"/>
  </g>
  <g id="eyes_1_">
    <ellipse cx="47.56" cy="58.81" fill="#5D4037" rx="4.93" ry="5.1"/>
    <ellipse cx="80.44" cy="58.81" fill="#5D4037" rx="4.93" ry="5.1"/>
  </g>
  <g id="eyebrows_1_">
    <path d="M54.98,49.82c-0.93-1.23-3.07-3.01-7.23-3.01s-6.31,1.79-7.23,3.01c-0.41,0.54-0.31,1.17-0.02,1.55 c0.26,0.35,1.04,0.68,1.9,0.39c0.86-0.29,2.54-1.16,5.35-1.18c2.81,0.02,4.49,0.89,5.35,1.18c0.86,0.29,1.64-0.03,1.9-0.39 C55.29,50.99,55.39,50.36,54.98,49.82z" fill="#AB872F"/>
    <path d="M87.48,49.82c-0.93-1.23-3.07-3.01-7.23-3.01c-4.16,0-6.31,1.79-7.23,3.01 c-0.41,0.54-0.31,1.17-0.02,1.55c0.26,0.35,1.04,0.68,1.9,0.39c0.86-0.29,2.54-1.16,5.35-1.18c2.81,0.02,4.49,0.89,5.35,1.18 c0.86,0.29,1.64-0.03,1.9-0.39C87.79,50.99,87.89,50.36,87.48,49.82z" fill="#AB872F"/>
  </g>
  <path id="nose_1_" d="M67.86,68.06c-0.11-0.04-0.21-0.07-0.32-0.08h-7.07c-0.11,0.01-0.22,0.04-0.32,0.08 c-0.64,0.26-0.99,0.92-0.69,1.63c0.3,0.71,1.71,2.69,4.55,2.69c2.84,0,4.25-1.99,4.55-2.69C68.85,68.98,68.5,68.32,67.86,68.06z" fill="#C48E6A"/>
  <path id="mouth_1_" d="M72.42,76.14c-3.19,1.89-13.63,1.89-16.81,0c-1.83-1.09-3.7,0.58-2.94,2.24 c0.75,1.63,6.45,5.42,11.37,5.42s10.55-3.79,11.3-5.42C76.09,76.72,74.25,75.05,72.42,76.14z" fill="#6D4C41"/>
  <g id="hairGroup_1_">
    <path id="hair_x5F_red" d="M104.07,25.11c-2.44-3.7-7.91-8.64-12.82-8.97c-0.79-4.72-5.84-8.72-10.73-10.27 C67.29,1.68,58.68,6.38,54.06,8.91c-0.96,0.53-7.17,3.97-11.51,1.5c-2.72-1.55-2.67-5.74-2.67-5.74s-8.53,3.25-5.61,12.29 c-2.93,0.12-6.77,1.36-8.8,5.47c-2.42,4.9-1.56,8.99-0.86,10.95c-2.52,2.14-5.69,6.69-3.52,12.6c1.64,4.45,8.17,6.5,8.17,6.5 c-0.46,8.01,1.03,12.94,1.82,14.94c0.14,0.35,0.63,0.32,0.72-0.04c0.99-3.96,4.37-17.8,4.03-20.21c0,0,11.35-2.25,22.17-10.22 c2.2-1.62,4.59-3,7.13-4.02c13.59-5.41,16.44,3.82,16.44,3.82s9.42-1.81,12.26,11.27c1.07,4.9,1.8,12.75,2.4,18.24 c0.04,0.39,0.57,0.47,0.73,0.11c0.95-2.18,2.85-6.5,3.3-10.91c0.16-1.55,4.34-3.6,6.14-10.26 C108.79,36.32,105.84,27.78,104.07,25.11z" fill="#E63D00"/>
    <g id="hairHighlights_x5F_red">
      <radialGradient id="SVGID_8_" cx="84.6246" cy="41.4739" gradientTransform="matrix(0.3076 0.9515 -0.706 0.2282 87.8733 -48.513)" gradientUnits="userSpaceOnUse" r="35.6328">
        <stop offset="0.6985" stop-color="#F98B25" stop-opacity="0"/>
        <stop offset="1" stop-color="#F98B25"/>
      </radialGradient>
      <path d="M100.22,55.5c0.16-1.55,4.34-3.6,6.14-10.26c0.19-0.71,0.35-1.43,0.5-2.15 c1.46-8.09-1.16-15.52-2.79-17.98c-2.26-3.42-7.1-7.89-11.7-8.81c-0.4-0.05-0.79-0.1-1.16-0.12c0,0,0.33,2.15-0.54,3.86 c-1.12,2.22-3.41,2.75-3.41,2.75C99.24,34.77,98.38,44.79,100.22,55.5z" fill="url(#SVGID_8_)"/>
      <radialGradient id="SVGID_9_" cx="47.28" cy="4.2004" gradientTransform="matrix(0.8813 0.4726 -0.5603 1.045 7.9663 -22.5323)" gradientUnits="userSpaceOnUse" r="9.3426">
        <stop offset="0.3933" stop-color="#F98B25"/>
        <stop offset="1" stop-color="#F98B25" stop-opacity="0"/>
      </radialGradient>
      <path d="M56.95,7.39c-1.09,0.53-2.06,1.06-2.89,1.51c-0.96,0.53-7.17,3.97-11.51,1.5 c-2.67-1.52-2.67-5.58-2.67-5.72c-1.23,1.57-4.95,12.78,5.93,13.53c4.69,0.32,7.58-3.77,9.3-7.23 C55.72,9.71,56.69,7.88,56.95,7.39z" fill="url(#SVGID_9_)"/>
      <radialGradient id="SVGID_10_" cx="160.3122" cy="62.538" gradientTransform="matrix(-0.9378 -0.3944 0.2182 -0.5285 206.7949 119.5802)" gradientUnits="userSpaceOnUse" r="35.4104">
        <stop offset="0.7092" stop-color="#F98B25" stop-opacity="0"/>
        <stop offset="1" stop-color="#F98B25"/>
      </radialGradient>
      <path d="M79.16,5.47c7.32,1.98,10.89,5.71,12.08,10.68c0.35,1.46,0.77,15.08-25.23-0.4 c-9.67-5.76-7.03-9.36-5.9-9.77C64.53,4.38,70.96,3.25,79.16,5.47z" fill="url(#SVGID_10_)"/>
      <radialGradient id="SVGID_11_" cx="46.3693" cy="15.9622" gradientTransform="matrix(1 0 0 1.2233 0 -3.5639)" gradientUnits="userSpaceOnUse" r="13.0987">
        <stop offset="0.7858" stop-color="#F98B25" stop-opacity="0"/>
        <stop offset="1" stop-color="#F98B25"/>
      </radialGradient>
      <path d="M39.84,4.68c-0.01,0.01-0.03,0.01-0.06,0.02c0,0,0,0-0.01,0 c-0.93,0.39-8.24,3.78-5.51,12.26l7.78,1.25c-6.89-6.98-2.17-13.55-2.17-13.55S39.85,4.67,39.84,4.68z" fill="url(#SVGID_11_)"/>
      <radialGradient id="SVGID_12_" cx="38.1531" cy="25.4421" gradientTransform="matrix(-0.9657 -0.2598 0.2432 -0.9037 68.8094 58.347)" gradientUnits="userSpaceOnUse" r="16.0834">
        <stop offset="0.503" stop-color="#F98B25" stop-opacity="0"/>
        <stop offset="1" stop-color="#F98B25"/>
      </radialGradient>
      <path d="M39.07,17.73l-4.81-0.77c-0.19,0-0.83,0.06-1.18,0.11c-2.71,0.38-5.9,1.78-7.63,5.36 c-1.86,3.86-1.81,7.17-1.3,9.38c0.15,0.74,0.45,1.58,0.45,1.58s2.38-2.26,8.05-2.41L39.07,17.73z" fill="url(#SVGID_12_)"/>
      <radialGradient id="SVGID_13_" cx="36.3902" cy="42.9149" gradientTransform="matrix(0.9907 0.1363 -0.1353 0.9837 6.1477 -4.2589)" gradientUnits="userSpaceOnUse" r="16.8856">
        <stop offset="0.6985" stop-color="#F98B25" stop-opacity="0"/>
        <stop offset="1" stop-color="#F98B25"/>
      </radialGradient>
      <path d="M24.37,33.58c-2.37,2.1-5.56,6.79-3.21,12.61c1.78,4.39,8.09,6.29,8.09,6.29 c0,0.02,1.26,0.39,1.91,0.39l1.48-21.9c-3.03,0-5.94,0.91-7.82,2.22C24.85,33.23,24.36,33.55,24.37,33.58z" fill="url(#SVGID_13_)"/>
    </g>
  </g>
</svg>

<svg viewBox="0 0 128 128" xmlns="http://www.w3.org/2000/svg">
  <defs>
    <radialGradient id="SVGID_1_" cx="79.4688" cy="-170.196431" gradientTransform="matrix(1 0 0 -0.4912 0 0)" gradientUnits="userSpaceOnUse" r="23.419">
      <stop offset="0.6985" stop-color="#F98B25" stop-opacity="0"/>
      <stop offset="1" stop-color="#F98B25"/>
    </radialGradient>
    <radialGradient id="SVGID_2_" cx="-58.732974" cy="154.124699" gradientTransform="matrix(-0.9057 0.4238 0.3144 0.6719 0 0)" gradientUnits="userSpaceOnUse" r="6.9209">
      <stop offset="0" stop-color="#F98B25"/>
      <stop offset="0.8724" stop-color="#F98B25" stop-opacity="0"/>
    </radialGradient>
    <radialGradient id="SVGID_3_" cx="-65.630477" cy="-99.142728" gradientTransform="matrix(-0.0746 -0.9972 -0.8311 0.0622 0 0)" gradientUnits="userSpaceOnUse" r="30.3992">
      <stop offset="0.6985" stop-color="#F98B25" stop-opacity="0"/>
      <stop offset="1" stop-color="#F98B25"/>
    </radialGradient>
    <radialGradient id="SVGID_4_" cx="-59.371976" cy="55.301417" gradientTransform="matrix(0.0746 -0.9972 0.8311 0.0622 0 0)" gradientUnits="userSpaceOnUse" r="30.3992">
      <stop offset="0.6985" stop-color="#F98B25" stop-opacity="0"/>
      <stop offset="1" stop-color="#F98B25"/>
    </radialGradient>
    <radialGradient id="SVGID_5_" cx="-48.8854" cy="-170.069192" gradientTransform="matrix(-1 0 0 -0.4912 0 0)" gradientUnits="userSpaceOnUse" r="23.419">
      <stop offset="0.6985" stop-color="#F98B25" stop-opacity="0"/>
      <stop offset="1" stop-color="#F98B25"/>
    </radialGradient>
    <radialGradient id="SVGID_6_" cx="57.230684" cy="80.98198" gradientTransform="matrix(0.9057 0.4238 -0.3144 0.6719 0 0)" gradientUnits="userSpaceOnUse" r="6.9209">
      <stop offset="0" stop-color="#F98B25"/>
      <stop offset="0.9438" stop-color="#F98B25" stop-opacity="0"/>
    </radialGradient>
    <linearGradient id="SVGID_7_" gradientUnits="userSpaceOnUse" x1="64" x2="64" y1="94.5648" y2="122.1097">
      <stop offset="0" stop-color="#F78C1F"/>
      <stop offset="0.4945" stop-color="#F37F21"/>
      <stop offset="1" stop-color="#ED6D23"/>
    </linearGradient>
    <radialGradient id="SVGID_8_" cx="65.489311" cy="-91.329662" gradientTransform="matrix(0.3076 0.9515 -0.706 0.2282 0 0)" gradientUnits="userSpaceOnUse" r="35.6328">
      <stop offset="0.6985" stop-color="#F98B25" stop-opacity="0"/>
      <stop offset="1" stop-color="#F98B25"/>
    </radialGradient>
    <radialGradient id="SVGID_9_" cx="43.653568" cy="-15.72156" gradientTransform="matrix(0.8813 0.4726 -0.5603 1.045 0 0)" gradientUnits="userSpaceOnUse" r="9.3426">
      <stop offset="0.3933" stop-color="#F98B25"/>
      <stop offset="1" stop-color="#F98B25" stop-opacity="0"/>
    </radialGradient>
    <radialGradient id="SVGID_10_" cx="-72.431322" cy="9.962494" gradientTransform="matrix(-0.9378 -0.3944 0.2182 -0.5285 0 0)" gradientUnits="userSpaceOnUse" r="35.4104">
      <stop offset="0.7092" stop-color="#F98B25" stop-opacity="0"/>
      <stop offset="1" stop-color="#F98B25"/>
    </radialGradient>
    <radialGradient id="SVGID_11_" cx="46.3693" cy="13.048851" gradientTransform="matrix(1 0 0 1.2233 0 0)" gradientUnits="userSpaceOnUse" r="13.0987">
      <stop offset="0.7858" stop-color="#F98B25" stop-opacity="0"/>
      <stop offset="1" stop-color="#F98B25"/>
    </radialGradient>
    <radialGradient id="SVGID_12_" cx="-43.451934" cy="-15.662262" gradientTransform="matrix(-0.9657 -0.2598 0.2432 -0.9037 0 0)" gradientUnits="userSpaceOnUse" r="16.0834">
      <stop offset="0.503" stop-color="#F98B25" stop-opacity="0"/>
      <stop offset="1" stop-color="#F98B25"/>
    </radialGradient>
    <radialGradient id="SVGID_13_" cx="41.900071" cy="37.82199" gradientTransform="matrix(0.9907 0.1363 -0.1353 0.9837 0 0)" gradientUnits="userSpaceOnUse" r="16.8856">
      <stop offset="0.6985" stop-color="#F98B25" stop-opacity="0"/>
      <stop offset="1" stop-color="#F98B25"/>
    </radialGradient>
  </defs>
  <path id="hair_x5F_red_1_" d="M98.9,79.85 C97.65,77.58 99.24,75.27 101.96,72.41 C106.27,67.87 110.96,57.34 106.6,46.65 C106.63,46.59 105.74,44.79 105.77,44.73 L103.98,44.64 C103.41,44.56 83.72,44.52 64.01,44.52 C44.3,44.52 24.62,44.56 24.04,44.64 C24.04,44.64 21.39,46.59 21.41,46.65 C17.06,57.34 21.74,67.87 26.05,72.41 C28.76,75.27 30.35,77.58 29.11,79.85 C27.9,82.06 24.3,82.38 24.3,82.38 C24.3,82.38 25.13,84.64 27.13,85.86 C28.98,86.99 31.26,87.25 32.83,87.29 C32.83,87.29 38.98,95.8 55.06,95.8 L64.01,95.8 L72.96,95.8 C89.04,95.8 95.19,87.29 95.19,87.29 C96.76,87.25 99.04,86.99 100.89,85.86 C102.89,84.64 103.72,82.38 103.72,82.38 C103.72,82.38 100.11,82.06 98.9,79.85 Z" fill="#E63D00"/>
  <path d="M63.99,95.79 L63.99,86.35 L92.56,84.09 L95.16,87.29 C95.16,87.29 89.01,95.8 72.93,95.8 L63.99,95.79 Z" fill="url(#SVGID_1_)"/>
  <path d="M95.1,83.16 C90.82,76.66 100.31,74.23 100.31,74.23 C100.31,74.23 100.32,74.24 100.32,74.24 C98.67,76.29 97.92,78.08 98.89,79.85 C100.1,82.06 103.7,82.38 103.7,82.38 C103.7,82.38 98.79,86.74 95.1,83.16 Z" fill="url(#SVGID_2_)"/>
  <path d="M106.62,46.65 C110.87,57 106.4,67.66 102.21,72.16 C101.63,72.78 99.2,75.17 98.64,77.08 C98.64,77.08 89.1,63.77 86.25,55.95 C85.67,54.37 85.15,52.75 85.08,51.07 C85.03,49.81 85.22,48.31 85.95,47.25 C86.84,45.94 106.11,45.55 106.11,45.55 C106.11,45.55 106.62,46.65 106.62,46.65 Z" fill="url(#SVGID_3_)"/>
  <path d="M21.4,46.65 C17.16,57 21.63,67.66 25.81,72.15 C26.39,72.77 28.82,75.16 29.38,77.07 C29.38,77.07 38.92,63.76 41.77,55.94 C42.35,54.36 42.87,52.74 42.94,51.06 C42.99,49.8 42.8,48.3 42.07,47.24 C41.18,45.93 40.14,46.28 38.63,46.28 C35.75,46.28 23.14,45.54 22.16,45.54 C22.17,45.55 21.4,46.65 21.4,46.65 Z" fill="url(#SVGID_4_)"/>
  <path d="M64.03,95.79 L64.03,86.35 L35.46,84.09 L32.86,87.29 C32.86,87.29 39.01,95.8 55.09,95.8 L64.03,95.79 Z" fill="url(#SVGID_5_)"/>
  <path d="M32.93,83.16 C37.21,76.66 27.72,74.23 27.72,74.23 C27.72,74.23 27.71,74.24 27.71,74.24 C29.36,76.29 30.11,78.08 29.14,79.85 C27.93,82.06 24.33,82.38 24.33,82.38 C24.33,82.38 29.23,86.74 32.93,83.16 Z" fill="url(#SVGID_6_)"/>
  <path d="M64.13,94.68 C64.09,94.68 64.04,94.68 64,94.68 C38.51,94.71 12.87,102.18 12.87,119.96 L12.87,124 L14.37,124 L15.87,124 L112.14,124 L113.64,124 L115.14,124 L115.14,119.96 C115.13,103.2 89.73,94.68 64.13,94.68 Z" fill="url(#SVGID_7_)"/>
  <path d="M54.92,90.08 L54.92,100.06 C54.92,104.57 58.62,108.23 63.18,108.23 L64.83,108.23 C69.39,108.23 73.09,104.57 73.09,100.06 L73.09,90.08 L54.92,90.08 Z" fill="#C48E6A"/>
  <path d="M91.33,50.43 L36.67,50.43 C30.78,50.43 25.96,55.57 25.96,61.84 C25.96,68.11 30.78,73.25 36.67,73.25 L91.32,73.25 C97.21,73.25 102.03,68.11 102.03,61.84 C102.03,55.57 97.22,50.43 91.33,50.43 Z" fill="#C48E6A"/>
  <path d="M64,11.07 L64,11.07 L64,11.07 C46.6,11.07 30.48,29.68 30.48,56.46 C30.48,83.1 47.09,96.27 64,96.27 C80.91,96.27 97.52,83.1 97.52,56.46 C97.52,29.68 81.4,11.07 64,11.07 Z" fill="#E0BB95"/>
  <path d="M52.49,58.81 A4.93 5.1 0 1 1 42.63,58.81 A4.93 5.1 0 1 1 52.49,58.81 Z" fill="#5D4037"/>
  <path d="M85.37,58.81 A4.93 5.1 0 1 1 75.51,58.81 A4.93 5.1 0 1 1 85.37,58.81 Z" fill="#5D4037"/>
  <path d="M54.98,49.82 C54.05,48.59 51.91,46.81 47.75,46.81 C43.59,46.81 41.44,48.6 40.52,49.82 C40.11,50.36 40.21,50.99 40.5,51.37 C40.76,51.72 41.54,52.05 42.4,51.76 C43.26,51.47 44.94,50.6 47.75,50.58 C50.56,50.6 52.24,51.47 53.1,51.76 C53.96,52.05 54.74,51.73 55,51.37 C55.29,50.99 55.39,50.36 54.98,49.82 Z" fill="#AB872F"/>
  <path d="M87.48,49.82 C86.55,48.59 84.41,46.81 80.25,46.81 C76.09,46.81 73.94,48.6 73.02,49.82 C72.61,50.36 72.71,50.99 73,51.37 C73.26,51.72 74.04,52.05 74.9,51.76 C75.76,51.47 77.44,50.6 80.25,50.58 C83.06,50.6 84.74,51.47 85.6,51.76 C86.46,52.05 87.24,51.73 87.5,51.37 C87.79,50.99 87.89,50.36 87.48,49.82 Z" fill="#AB872F"/>
  <path id="nose_1_" d="M67.86,68.06 C67.75,68.02 67.65,67.99 67.54,67.98 L60.47,67.98 C60.36,67.99 60.25,68.02 60.15,68.06 C59.51,68.32 59.16,68.98 59.46,69.69 C59.76,70.4 61.17,72.38 64.01,72.38 C66.85,72.38 68.26,70.39 68.56,69.69 C68.85,68.98 68.5,68.32 67.86,68.06 Z" fill="#C48E6A"/>
  <path id="mouth_1_" d="M72.42,76.14 C69.23,78.03 58.79,78.03 55.61,76.14 C53.78,75.05 51.91,76.72 52.67,78.38 C53.42,80.01 59.12,83.8 64.04,83.8 C68.96,83.8 74.59,80.01 75.34,78.38 C76.09,76.72 74.25,75.05 72.42,76.14 Z" fill="#6D4C41"/>
  <path id="hair_x5F_red" d="M104.07,25.11 C101.63,21.41 96.16,16.47 91.25,16.14 C90.46,11.42 85.41,7.42 80.52,5.87 C67.29,1.68 58.68,6.38 54.06,8.91 C53.1,9.44 46.89,12.88 42.55,10.41 C39.83,8.86 39.88,4.67 39.88,4.67 C39.88,4.67 31.35,7.92 34.27,16.96 C31.34,17.08 27.5,18.32 25.47,22.43 C23.05,27.33 23.91,31.42 24.61,33.38 C22.09,35.52 18.92,40.07 21.09,45.98 C22.73,50.43 29.26,52.48 29.26,52.48 C28.8,60.49 30.29,65.42 31.08,67.42 C31.22,67.77 31.71,67.74 31.8,67.38 C32.79,63.42 36.17,49.58 35.83,47.17 C35.83,47.17 47.18,44.92 58,36.95 C60.2,35.33 62.59,33.95 65.13,32.93 C78.72,27.52 81.57,36.75 81.57,36.75 C81.57,36.75 90.99,34.94 93.83,48.02 C94.9,52.92 95.63,60.77 96.23,66.26 C96.27,66.65 96.8,66.73 96.96,66.37 C97.91,64.19 99.81,59.87 100.26,55.46 C100.42,53.91 104.6,51.86 106.4,45.2 C108.79,36.32 105.84,27.78 104.07,25.11 Z" fill="#E63D00"/>
  <path d="M100.22,55.5 C100.38,53.95 104.56,51.9 106.36,45.24 C106.55,44.53 106.71,43.81 106.86,43.09 C108.32,35 105.7,27.57 104.07,25.11 C101.81,21.69 96.97,17.22 92.37,16.3 C91.97,16.25 91.58,16.2 91.21,16.18 C91.21,16.18 91.54,18.33 90.67,20.04 C89.55,22.26 87.26,22.79 87.26,22.79 C99.24,34.77 98.38,44.79 100.22,55.5 Z" fill="url(#SVGID_8_)"/>
  <path d="M56.95,7.39 C55.86,7.92 54.89,8.45 54.06,8.9 C53.1,9.43 46.89,12.87 42.55,10.4 C39.88,8.88 39.88,4.82 39.88,4.68 C38.65,6.25 34.93,17.46 45.81,18.21 C50.5,18.53 53.39,14.44 55.11,10.98 C55.72,9.71 56.69,7.88 56.95,7.39 Z" fill="url(#SVGID_9_)"/>
  <path d="M79.16,5.47 C86.48,7.45 90.05,11.18 91.24,16.15 C91.59,17.61 92.01,31.23 66.01,15.75 C56.34,9.99 58.98,6.39 60.11,5.98 C64.53,4.38 70.96,3.25 79.16,5.47 Z" fill="url(#SVGID_10_)"/>
  <path d="M39.84,4.68 C39.83,4.69 39.81,4.69 39.78,4.7 C39.78,4.7 39.78,4.7 39.77,4.7 C38.84,5.09 31.53,8.48 34.26,16.96 L42.04,18.21 C35.15,11.23 39.87,4.66 39.87,4.66 C39.87,4.66 39.85,4.67 39.84,4.68 Z" fill="url(#SVGID_11_)"/>
  <path d="M39.07,17.73 L34.26,16.96 C34.07,16.96 33.43,17.02 33.08,17.07 C30.37,17.45 27.18,18.85 25.45,22.43 C23.59,26.29 23.64,29.6 24.15,31.81 C24.3,32.55 24.6,33.39 24.6,33.39 C24.6,33.39 26.98,31.13 32.65,30.98 L39.07,17.73 Z" fill="url(#SVGID_12_)"/>
  <path d="M24.37,33.58 C22,35.68 18.81,40.37 21.16,46.19 C22.94,50.58 29.25,52.48 29.25,52.48 C29.25,52.5 30.51,52.87 31.16,52.87 L32.64,30.97 C29.61,30.97 26.7,31.88 24.82,33.19 C24.85,33.23 24.36,33.55 24.37,33.58 Z" fill="url(#SVGID_13_)"/>
</svg>
